X:1
T:F Major Abraham Wood, 1778
T:Isaac Watts, 1706 (Hymn 10, Book 1)     66. 86. (S. M.)
T:Worcester
T:Transcribed from Law's Select Harmony, 1779.
%%score [ 1 2 3 4 ]
L:1/8
Q:1/4=140
M:4/4
K:F
V:1 treble nm="Tr." snm="Tr."
V:2 treble nm="C." snm="C."
V:3 treble-8 nm="T." snm="T."
V:4 bass nm="B." snm="B."
V:1
 z8 | z8 | z8 | z8 | z8 | z8 | %6
 z4"^2. And sought, but never found!  Which kings and prophets waited""^1. And  words  of  peace reveal!       Who bring salvation on their" c4 | %7
 d2 cB A2 G2 | F8 | A4 A2 A2 | B2 c2 B2 B2 | %11
"^tongues,  And words of peace reveal!              \"Zi  –  on, behold   thy   Sa  –  vior King;     He    reigns ________ and    triumphs  here.\"""^for,     And sought, but never found!              Pro–phets and kings desired    it  long,      But   died _________ with – out  the  sight." c4 c4 | %12
 c2 d2 c2 c2 | c8 | z4 A4 | c2 c2 A2 G2 | A2 B2 A4 | A4 (cBAG | F2) E2 F2 d2 | c8 |: z8 | z8 | z8 | %23
 z4"^Prophets and kings de  –  sired   it    long,   But  died   with–out  the     sight.""^\"Zi –on,  be–hold   thy       Sa – vior  King;   He  reigns and   triumphs    here.\"" c2 cc | %24
 f2 f2 e2 c2 | d2 d2 c2 c2 | B2 B2 A4 | z8 | %28
 z4"^\"Zi –on,   be –  hold  thy Sa–vior  King;  _____    He        reigns and triumphs here.\"""^Prophets and  kings de–sired  it   long,  _____    But       died   without  the  sight." c2 cc | %29
 A2 A2 c2 f2 | (d2 Bd c2) c2 | c2 d2 c2 c2 | A8 :| %33
V:2
 z8 | z8 | z8 | z8 | %4
"^1.  Who bring salvation on their tongues,""^2.  Which kings and prophets waited for," C4 F2 F2 | %5
 E2 E2 D2 D2 | C4 z4 | z8 | z8 | F4 A2 A2 | F2 F2 G2 G2 | A4 A4 | A2 F2 F2 G2 | A8 | z4 F4 | %15
 F2 G2 A2 G2 | F2 E2 F4 | F4 A4- | A2 G2 F2 F2 | E8 |: z8 | z8 | %22
 z4"^\"Zi –  on,    be – hold   thy Sa– vior      King;   He      reigns  and  triumphs   here.\"         \"He           reigns        and        triumphs""^Pro–phets and  kings desired    it        long,   But      died    with–out  the   sight.            But           died          with  –  out  the" C2 CC | %23
 F2 F2 E2 C2 | D2 D2 E2 E2 | F2 F2 A4 | (F2 G2) A4 | F4 F2 G2 | %28
"^here.\"  \"Zi–on,   be – hold  thy Sa–vior King; ______   He    reigns and  triumphs  here.\"""^sight.      Prophets and  kings desired  it  long, ______  But    died   with–out  the  sight." A4 A2 GG | %29
 F2 F2 F2 A2 | (G2 FG A2) A2 | A2 F2 F2 [EG]2 | A8 :| %33
V:3
 z8 | z8 | %2
"^1. Who stand on Zion's hill!                                                                                                                   Who bring salvation on their""^2. That hear this joyful sound,                                                                                                       Which kings and prophets waited" c4 d2 f2 | %3
 e2 d2 c4 | z8 | z8 | z8 | z8 | z8 | c4 c2 c2 | d2 c2 d2 e2 | %11
"^tongues,  And words of peace reveal!              \"Zi  –  on, behold   thy   Sa  –  vior King;     He    reigns ________ and    triumphs  here.\"""^for,     And sought, but never found!              Pro–phets and kings desired    it  long,      But   died _________ with – out  the  sight." f4 f4 | %12
 c2 B2 A2 G2 | F8 | z4 F4 | A2 G2 c2 B2 | d2 B2 c4 | c4 (fede | c2) cB A2 B2 | c8 |: z8 | %21
 z4"^Pro–phets and kings  desired   it       long,  But died   with–out  the         sight.            Prophets and kings desired       it  long,  But   died    without  the""^\"Zi – on, be–hold  thy  Sa – vior           King;  He  reigns and   triumphs         here.\"        Zi – on,  behold  thy    Sa  – vior King;  He    reigns and triumphs" c2 cc | %22
 f2 f2 e2 c2 | d2 d2 c2 A2 | B2 B2 c4 | B2 BB A2 A2 | d2 d2 c2 c2 | d2 c2 d2 e2 | %28
"^here.\"  \"Zi–on,   be – hold  thy Sa–vior King; ______   He    reigns and  triumphs  here.\"""^sight.      Prophets and  kings desired  it  long, ______  But    died   with–out  the  sight." f4 f2 ge | %29
 c2 c2 c2 A2 | (B2 dB c2) cA | F2 GB A2 G2 | F8 :| %33
V:4
"^2. How hap – py  are  our  ears  That hear this joyful sound,  Which kings and prophets waited for, And sought, but never found!""^1. How beauteous are their feet   Who stand on Zion's hill!  Who bring salvation on their tongues,  And words of peace reveal!" F,4 A,2 G,F, | %1
 C,2 D,E, F,4 | F,4 D,2 D,2 | C,2 G,,2 C,4 | F,4 F,2 F,2 | C,2 C,2 D,2 D,2 | F,4 F,4 | %7
 D,2 A,,B,, C,2 C,2 | [F,,F,]8 | F,4 F,2 F,2 | B,2 A,2 G,2 G,2 | F,4 F,4 | A,2 B,2 C2 C,2 | F,8 | %14
 z4 F,4 | F,2 E,2 F,2 G,2 | B,>A, G,2 F,4 | F,4 F,4- | F,2 E,2 D,2 D,2 | C,8 |: %20
 z4"^\"Zi –on,  be –""^Pro–phets and" C,2 C,C, | %21
"^–hold thy Sa –vior     King;  He   reigns and         triumphs here.\"            \"Zi – on,   behold   thy""^kings desired   it       long,   But  died   with   –  out  the  sight.               Prophets and kings de–" F,2 F,2 E,2 C,2 | %22
 D,2 D,2 C,2 F,E, | D,2 D,2 C,4 | B,,2 B,,B,, A,,2 A,,2 | %25
"^Sa– vior    King; ______________He     reigns and triumphs""^–sired  it    long, ______________ But    died   without the" D,2 D,2 (F,4 | %26
 B,2 G,B, A,2) F,2 | B,2 A,2 B,2 C2 | F,4 F,2 E,C, | F,2 F,2 F,2 F,2 | (G,2 A,F, A,2) F,G, | %31
 A,2 B,2 C2 C,2 | [F,,F,]8 :| %33

